images/Group1.svg

<svg width="390" height="102" viewBox="0 0 390 102" fill="none" xmlns="http://www.w3.org/2000/svg">
<rect x="-15.9536" y="47.5652" width="405.253" height="56" transform="rotate(-15 -15.9536 47.5652)" fill="#5200FF"/>
<path d="M18.2197 67.7068C17.973 66.7859 17.9677 65.9446 18.204 65.1829C18.4402 64.4211 18.8457 63.781 19.4204 63.2626C20.0093 62.7404 20.7075 62.3711 21.515 62.1547C22.2234 61.9649 22.8714 61.89 23.4591 61.9299C24.043 61.9557 24.5892 62.0674 25.0977 62.2652C25.6024 62.4488 26.0633 62.667 26.4802 62.9197L25.4439 59.0521C24.7236 58.7441 23.9733 58.5503 23.1928 58.471C22.4123 58.3916 21.4767 58.4981 20.3858 58.7903C19.1958 59.1092 18.1472 59.5876 17.24 60.2254C16.3329 60.8633 15.6111 61.6261 15.0745 62.5139C14.538 63.4017 14.1986 64.3733 14.0563 65.4287C13.9139 66.4842 13.9984 67.5928 14.3097 68.7545C14.6209 69.9162 15.1021 70.9185 15.7531 71.7614C16.4041 72.6043 17.1839 73.276 18.0924 73.7766C19.0009 74.2772 20.0074 74.5769 21.112 74.6757C22.2165 74.7745 23.3638 74.6645 24.5538 74.3456C25.6447 74.0533 26.5082 73.6777 27.1444 73.2187C27.7807 72.7597 28.3336 72.2168 28.8034 71.5899L27.7671 67.7223C27.5323 68.1496 27.2423 68.5689 26.897 68.9803C26.5517 69.3917 26.1346 69.7616 25.6456 70.09C25.1566 70.4185 24.5579 70.6776 23.8496 70.8674C23.0421 71.0837 22.2528 71.113 21.4816 70.9552C20.7247 70.7936 20.0535 70.442 19.468 69.9004C18.8788 69.3447 18.4627 68.6135 18.2197 67.7068ZM29.0935 62.2878L31.7127 72.063L34.7941 71.2373L32.1748 61.4622L29.0935 62.2878ZM35.7236 60.5113L32.6192 65.6706L38.8316 70.1555L42.6142 69.1419L36.4655 64.6399L39.5699 59.4807L35.7236 60.5113ZM52.0223 59.1049L51.189 55.5702L43.4071 65.9686L44.2404 69.5034L52.0223 59.1049ZM44.5244 58.1531L41.4219 58.9844L44.2404 69.5034L46.5401 65.6757L44.5244 58.1531ZM51.189 55.5702L48.9106 59.3921L50.9262 66.9147L54.0075 66.0891L51.189 55.5702ZM61.1754 57.8367L64.9251 62.4805L67.8511 60.9904L59.9398 53.2254L56.9709 63.9057L60.25 63.7332L61.1754 57.8367ZM66.3284 62.7877L66.8409 64.7003L69.8584 63.8917L68.6684 59.4504L55.4932 62.9807L56.6832 67.422L59.807 66.585L59.2946 64.6724L66.3284 62.7877ZM69.6743 56.6527C69.9476 57.6727 70.4276 58.5007 71.1143 59.1367C71.8009 59.7726 72.6262 60.1892 73.5901 60.3864C74.554 60.5837 75.5672 60.54 76.6297 60.2553C77.6922 59.9706 78.5845 59.5037 79.3064 58.8548C80.0426 58.202 80.549 57.4286 80.8257 56.5345C81.1165 55.6366 81.1253 54.6777 80.852 53.6577C80.5749 52.6235 80.0859 51.7903 79.3851 51.1581C78.6984 50.5222 77.8732 50.1056 76.9093 49.9084C75.9595 49.7073 74.9534 49.7491 73.8909 50.0338C72.8284 50.3185 71.929 50.7873 71.1929 51.44C70.4568 52.0928 69.9504 52.8662 69.6737 53.7603C69.397 54.6544 69.3972 55.6185 69.6743 56.6527ZM72.9681 55.7701C72.8315 55.2601 72.82 54.7925 72.9338 54.3672C73.0476 53.9419 73.248 53.5846 73.5348 53.2951C73.8217 53.0057 74.1776 52.804 74.6026 52.6901C75.0135 52.5801 75.4155 52.5786 75.8086 52.6859C76.2159 52.7893 76.5681 52.9986 76.8652 53.3138C77.1764 53.6252 77.4003 54.0359 77.5369 54.5459C77.6736 55.0559 77.685 55.5236 77.5712 55.9489C77.4678 56.3562 77.2655 56.7064 76.9645 56.9997C76.6777 57.2891 76.3288 57.4889 75.918 57.599C75.493 57.7129 75.0839 57.7162 74.6907 57.6089C74.2976 57.5017 73.9473 57.2995 73.6399 57.0022C73.3287 56.6908 73.1048 56.2801 72.9681 55.7701ZM87.0711 54.6105L90.4074 53.7165L89.6956 51.0602L87.2943 51.7037L87.0711 54.6105ZM87.2317 46.7097L89.8509 56.4849L93.0597 55.6251L90.4405 45.8499L87.2317 46.7097ZM84.4904 47.4443L81.2816 48.304L82.0332 51.1091C82.2875 52.0583 82.6191 52.8425 83.028 53.4618C83.4331 54.0669 83.9612 54.4796 84.6124 54.6999C85.274 54.9022 86.0936 54.8724 87.0711 54.6105L87.2943 51.7037C86.926 51.8024 86.6152 51.8325 86.362 51.7941C86.1049 51.7415 85.8894 51.617 85.7153 51.4207C85.5516 51.2064 85.4166 50.901 85.3103 50.5043L84.4904 47.4443ZM95.6531 50.6939L103.558 48.5757L102.915 46.1744L95.0096 48.2926L95.6531 50.6939ZM100.553 43.1403L103.172 52.9155L106.254 52.0898L103.634 42.3147L100.553 43.1403ZM93.0941 45.1389L95.7134 54.9141L98.8159 54.0827L96.1967 44.3076L93.0941 45.1389ZM116.645 38.8286L119.264 48.6037L122.494 47.7383L119.875 37.9631L116.645 38.8286ZM106.168 41.6357L108.787 51.4109L112.017 50.5454L109.398 40.7702L106.168 41.6357ZM110.137 46.3345L112.603 45.674C112.971 45.5753 113.272 45.5933 113.505 45.7282C113.749 45.845 113.909 46.0451 113.985 46.3285C114.038 46.5268 114.036 46.7172 113.979 46.8996C113.932 47.064 113.833 47.2044 113.682 47.3208C113.545 47.4334 113.356 47.522 113.115 47.5865L110.65 48.247L111.316 50.7333L114.355 49.9191C115.035 49.7369 115.608 49.439 116.074 49.0256C116.537 48.598 116.854 48.0804 117.025 47.4727C117.196 46.865 117.189 46.2141 117.003 45.5199C116.722 44.4716 116.17 43.7995 115.346 43.5039C114.533 43.1902 113.624 43.1682 112.618 43.4377L109.579 44.2519L110.137 46.3345ZM125.1 42.5303L134.025 40.1388C134.008 39.9612 133.98 39.8016 133.942 39.6599C133.901 39.5041 133.868 39.3836 133.846 39.2986C133.568 38.2644 133.126 37.4341 132.518 36.8075C131.924 36.1771 131.184 35.7679 130.298 35.58C129.413 35.3921 128.396 35.4519 127.249 35.7594C126.186 36.0441 125.318 36.459 124.644 37.0039C123.984 37.5451 123.509 38.1811 123.219 38.9117C122.943 39.6386 122.843 40.4247 122.917 41.2702C122.935 41.4478 122.959 41.6235 122.99 41.7973C123.022 41.9711 123.062 42.1501 123.112 42.3343C123.373 43.3118 123.821 44.1332 124.455 44.7985C125.099 45.4458 125.891 45.879 126.83 46.098C127.784 46.3132 128.849 46.2633 130.024 45.9482C130.974 45.6939 131.744 45.3661 132.335 44.9648C132.936 44.5455 133.406 44.0627 133.746 43.5162C134.081 42.9555 134.332 42.334 134.499 41.6517L131.442 41.7192C131.358 42.0301 131.23 42.3151 131.056 42.5742C130.879 42.8191 130.648 43.0329 130.363 43.2155C130.092 43.3944 129.758 43.537 129.361 43.6433C128.95 43.7534 128.543 43.7638 128.14 43.6745C127.75 43.5815 127.394 43.358 127.072 43.0041C126.763 42.6464 126.52 42.1346 126.342 41.4688L126.247 40.9474C126.107 40.4232 126.081 39.9593 126.171 39.5558C126.256 39.1381 126.43 38.7954 126.692 38.5278C126.965 38.2421 127.321 38.0405 127.76 37.9228C128.143 37.8203 128.482 37.8128 128.779 37.9003C129.086 37.9698 129.347 38.1202 129.56 38.3514C129.788 38.5789 129.984 38.8833 130.147 39.2648L124.622 40.7452L125.1 42.5303ZM139.822 32.6181L140.534 35.2744L147.398 33.4353L146.686 30.779L139.822 32.6181ZM141.827 32.5364L144.333 41.8865L147.414 41.0609L144.909 31.7107L141.827 32.5364ZM148.471 35.5392C148.744 36.5593 149.224 37.3872 149.911 38.0232C150.597 38.6591 151.423 39.0757 152.387 39.273C153.351 39.4702 154.364 39.4265 155.426 39.1418C156.489 38.8571 157.381 38.3903 158.103 37.7413C158.839 37.0885 159.346 36.3151 159.622 35.421C159.913 34.5231 159.922 33.5642 159.649 32.5442C159.371 31.51 158.882 30.6768 158.182 30.0447C157.495 29.4087 156.67 28.9921 155.706 28.7949C154.756 28.5938 153.75 28.6357 152.687 28.9204C151.625 29.2051 150.726 29.6738 149.989 30.3266C149.253 30.9793 148.747 31.7528 148.47 32.6468C148.194 33.5409 148.194 34.5051 148.471 35.5392ZM151.765 34.6567C151.628 34.1467 151.617 33.679 151.73 33.2537C151.844 32.8285 152.045 32.4711 152.331 32.1817C152.618 31.8922 152.974 31.6906 153.399 31.5767C153.81 31.4666 154.212 31.4652 154.605 31.5724C155.012 31.6758 155.365 31.8851 155.662 32.2003C155.973 32.5117 156.197 32.9224 156.333 33.4325C156.47 33.9425 156.482 34.4101 156.368 34.8354C156.264 35.2427 156.062 35.593 155.761 35.8862C155.474 36.1757 155.125 36.3754 154.714 36.4855C154.289 36.5994 153.88 36.6027 153.487 36.4955C153.094 36.3882 152.744 36.186 152.436 35.8888C152.125 35.5774 151.901 35.1667 151.765 34.6567ZM163.711 31.2279L164.018 32.3755L166.845 31.6181C167.071 31.5574 167.27 31.5345 167.441 31.5494C167.612 31.5643 167.752 31.6029 167.859 31.6651C167.981 31.7235 168.079 31.8037 168.152 31.9057C168.224 32.0076 168.278 32.1224 168.312 32.2499C168.377 32.4907 168.345 32.742 168.218 33.0039C168.101 33.2478 167.816 33.4305 167.363 33.5519L164.536 34.3092L165.077 36.328L168.987 35.2803C170.107 34.9804 170.839 34.511 171.184 33.8719C171.539 33.2148 171.618 32.518 171.421 31.7813C171.25 31.1438 170.961 30.6897 170.555 30.4191C170.148 30.1484 169.657 30.0144 169.08 30.0169C168.504 30.0195 167.876 30.1119 167.196 30.2941L163.711 31.2279ZM163.825 31.6529L167.097 30.7761C167.706 30.6128 168.236 30.3798 168.686 30.0769C169.147 29.7561 169.486 29.3768 169.703 28.9392C169.916 28.4873 169.948 27.9851 169.8 27.4326C169.629 26.7951 169.337 26.3268 168.923 26.0279C168.505 25.7147 168.018 25.5414 167.462 25.5081C166.917 25.4568 166.34 25.5127 165.731 25.676L162.458 26.5529L162.999 28.5716L165.613 27.8713C165.939 27.784 166.211 27.8096 166.431 27.9482C166.646 28.0727 166.788 28.2624 166.856 28.5174C166.887 28.6308 166.896 28.7498 166.884 28.8745C166.872 28.9992 166.835 29.1155 166.772 29.2233C166.71 29.331 166.623 29.4303 166.51 29.5212C166.409 29.594 166.273 29.6533 166.103 29.6988L163.489 30.3992L163.825 31.6529ZM160.609 27.0482L163.229 36.8234L166.31 35.9978L163.691 26.2226L160.609 27.0482ZM175.739 30.351C175.667 30.0818 175.67 29.8381 175.748 29.6197C175.84 29.3976 176.001 29.2028 176.229 29.0353C176.468 28.8498 176.771 28.7077 177.14 28.609C177.692 28.461 178.179 28.4066 178.599 28.4457C179.03 28.467 179.466 28.5628 179.906 28.7333L179.502 27.2245C179.318 27.1066 179.036 27.0153 178.654 26.9506C178.283 26.8679 177.857 26.8377 177.377 26.86C176.908 26.8643 176.425 26.9329 175.929 27.0658C175.079 27.2936 174.369 27.6204 173.8 28.0462C173.231 28.472 172.832 28.9661 172.603 29.5285C172.388 30.0872 172.368 30.6923 172.543 31.344C172.714 31.9815 173.009 32.4871 173.428 32.8607C173.857 33.2163 174.373 33.4425 174.976 33.5391C175.575 33.6215 176.215 33.5716 176.895 33.3894C177.575 33.2072 178.153 32.9306 178.631 32.5597C179.119 32.1708 179.46 31.715 179.654 31.1923C179.858 30.6517 179.877 30.0697 179.71 29.4463L179.051 28.3474C179.192 28.8716 179.202 29.309 179.084 29.6597C178.965 30.0103 178.753 30.2949 178.447 30.5135C178.156 30.7284 177.811 30.8889 177.415 30.9952C177.174 31.0597 176.931 31.0869 176.685 31.0768C176.45 31.0488 176.249 30.981 176.084 30.8735C175.915 30.7518 175.8 30.5777 175.739 30.351ZM173.454 26.8406C173.584 26.6997 173.787 26.5237 174.065 26.3127C174.338 26.0875 174.667 25.8703 175.052 25.6611C175.45 25.448 175.883 25.2788 176.35 25.1536C176.889 25.0093 177.341 25.0248 177.707 25.2001C178.083 25.3575 178.326 25.6415 178.436 26.0524L180.11 32.3L183.192 31.4744L181.347 24.5892C181.164 23.9092 180.812 23.3886 180.29 23.0274C179.783 22.6624 179.149 22.4525 178.391 22.3976C177.642 22.3248 176.829 22.4061 175.951 22.6415C175.072 22.8768 174.276 23.2193 173.561 23.6689C172.861 24.1147 172.27 24.5463 171.79 24.9635L173.454 26.8406ZM190.032 34.6522L186.16 20.202L182.951 21.0618L186.823 35.512L190.032 34.6522ZM195.46 22.9486C195.152 21.8011 194.669 20.9056 194.011 20.262C193.363 19.6005 192.632 19.1663 191.817 18.9595C191.017 18.7488 190.213 18.7516 189.405 18.968C188.555 19.1958 187.877 19.6127 187.372 20.2189C186.876 20.8072 186.57 21.5345 186.453 22.401C186.336 23.2675 186.42 24.232 186.705 25.2945C186.985 26.3429 187.395 27.2201 187.934 27.9261C188.468 28.618 189.099 29.1019 189.826 29.3779C190.563 29.6358 191.357 29.6509 192.207 29.4232C193.014 29.2068 193.712 28.8073 194.3 28.2246C194.902 27.6381 195.318 26.8965 195.548 25.9996C195.793 25.099 195.763 24.082 195.46 22.9486ZM192.081 23.854C192.218 24.364 192.227 24.8245 192.109 25.2356C191.992 25.6468 191.781 25.9918 191.476 26.2709C191.171 26.55 190.806 26.7465 190.381 26.8603C190.013 26.959 189.629 26.9708 189.229 26.8957C188.84 26.8027 188.484 26.6094 188.163 26.316C187.841 26.0225 187.61 25.6137 187.47 25.0896C187.329 24.5654 187.325 24.0958 187.457 23.6809C187.588 23.266 187.801 22.928 188.096 22.6669C188.401 22.3878 188.737 22.199 189.106 22.1003C189.531 21.9864 189.945 21.9741 190.348 22.0633C190.752 22.1526 191.107 22.3459 191.415 22.6431C191.722 22.9403 191.944 23.3439 192.081 23.854ZM206.564 14.7346L209.184 24.5098L212.414 23.6443L209.794 13.8692L206.564 14.7346ZM196.088 17.5418L198.707 27.317L201.937 26.4515L199.318 16.6763L196.088 17.5418ZM200.057 22.2406L202.522 21.58C202.891 21.4814 203.192 21.4994 203.425 21.6342C203.669 21.7511 203.829 21.9512 203.905 22.2345C203.958 22.4329 203.956 22.6232 203.898 22.8056C203.851 22.9701 203.752 23.1105 203.601 23.2269C203.464 23.3395 203.276 23.428 203.035 23.4926L200.57 24.1531L201.236 26.6394L204.275 25.8251C204.955 25.6429 205.528 25.3451 205.994 24.9317C206.456 24.5041 206.773 23.9865 206.945 23.3788C207.116 22.7711 207.108 22.1202 206.922 21.426C206.641 20.3776 206.089 19.7056 205.266 19.4099C204.453 19.0963 203.544 19.0743 202.538 19.3438L199.499 20.158L200.057 22.2406Z" fill="white"/>
</svg>

<svg xmlns="http://www.w3.org/2000/svg" width="390" height="102" fill="none">
  <path fill="#5200FF" d="M-15.95 47.57 375.5-57.32 390-3.22-1.46 101.65z"/>
  <path fill="#fff" d="M18.22 67.7a4.22 4.22 0 0 1 1.2-4.44 5.98 5.98 0 0 1 7.06-.34l-1.04-3.87c-.72-.3-1.47-.5-2.25-.58a7.96 7.96 0 0 0-2.8.32c-1.2.32-2.24.8-3.15 1.44a7.59 7.59 0 0 0-3.18 5.2 8.42 8.42 0 0 0 .25 3.32c.31 1.17.8 2.17 1.44 3.01a7.51 7.51 0 0 0 5.36 2.92c1.1.1 2.25-.02 3.44-.33 1.1-.3 1.96-.67 2.6-1.13.63-.46 1.18-1 1.65-1.63l-1.03-3.87c-.24.43-.53.85-.87 1.26a5.95 5.95 0 0 1-3.05 1.89c-.8.21-1.6.24-2.37.09a4.22 4.22 0 0 1-3.26-3.25Zm10.87-5.41 2.62 9.77 3.08-.82-2.62-9.78-3.08.83Zm6.63-1.78-3.1 5.16 6.21 4.49 3.78-1.02-6.14-4.5 3.1-5.16-3.85 1.03Zm16.3-1.4-.83-3.54-7.78 10.4.83 3.53 7.78-10.4Zm-7.5-.96-3.1.83 2.82 10.52 2.3-3.82-2.02-7.53Zm6.67-2.58-2.28 3.82 2.02 7.52L54 66.1l-2.82-10.52Zm9.99 2.27 3.75 4.64 2.92-1.49-7.91-7.76-2.97 10.68 3.28-.18.93-5.9Zm5.15 4.95.51 1.91 3.02-.8-1.2-4.45-13.17 3.53 1.2 4.44 3.12-.84-.52-1.9 7.04-1.9Zm3.34-6.14a5.1 5.1 0 0 0 1.44 2.49 5.06 5.06 0 0 0 2.48 1.25c.96.2 1.98.15 3.04-.13a6.41 6.41 0 0 0 2.68-1.4 5.06 5.06 0 0 0 1.54-5.2 5.02 5.02 0 0 0-3.94-3.75 6.41 6.41 0 0 0-3.02.12 6.55 6.55 0 0 0-2.7 1.41 5.06 5.06 0 0 0-1.52 2.32c-.27.9-.27 1.86 0 2.9Zm3.3-.88a2.68 2.68 0 0 1-.04-1.4 2.31 2.31 0 0 1 1.67-1.68 2.27 2.27 0 0 1 2.27.62c.3.32.53.73.67 1.24.13.5.14.97.03 1.4a2.27 2.27 0 0 1-1.65 1.65 2.31 2.31 0 0 1-2.28-.6 2.68 2.68 0 0 1-.67-1.23Zm14.1-1.16 3.34-.9-.71-2.65-2.4.64-.23 2.91Zm.16-7.9 2.62 9.77 3.21-.85-2.62-9.78-3.2.86Zm-2.74.73-3.2.86.74 2.8c.26.96.59 1.74 1 2.36.4.6.93 1.02 1.58 1.24.66.2 1.48.17 2.46-.09l.22-2.9c-.36.1-.67.12-.93.08a1.15 1.15 0 0 1-.64-.37c-.17-.21-.3-.52-.41-.92l-.82-3.06Zm11.16 3.25 7.9-2.11-.63-2.4L95 48.28l.64 2.4Zm4.9-7.55 2.62 9.78 3.08-.83-2.62-9.78-3.08.83Zm-7.46 2 2.62 9.77 3.1-.83-2.61-9.77-3.1.83Zm23.55-6.31 2.62 9.77 3.23-.86-2.61-9.78-3.23.87Zm-10.47 2.8 2.62 9.78 3.23-.86-2.62-9.78-3.23.87Zm3.97 4.7 2.46-.66c.37-.1.67-.08.9.06.25.12.4.32.48.6a1 1 0 0 1 0 .57.8.8 0 0 1-.3.42c-.14.11-.32.2-.57.27l-2.46.66.67 2.48 3.04-.81a4.17 4.17 0 0 0 1.71-.9c.47-.42.78-.94.96-1.55.17-.6.16-1.26-.03-1.95-.28-1.05-.83-1.72-1.65-2.02a4.32 4.32 0 0 0-2.73-.06l-3.04.81.56 2.08Zm14.96-3.8 8.93-2.4a2.93 2.93 0 0 0-.09-.47l-.1-.36a5.58 5.58 0 0 0-1.32-2.5 4.16 4.16 0 0 0-2.22-1.22 6.55 6.55 0 0 0-3.05.18c-1.06.28-1.93.7-2.6 1.24a4.69 4.69 0 0 0-1.66 4.8l.12.53a4.82 4.82 0 0 0 3.72 3.76c.95.22 2.02.17 3.2-.14a7.62 7.62 0 0 0 2.3-.99c.6-.41 1.08-.9 1.42-1.44.33-.56.58-1.19.75-1.87l-3.06.07c-.08.31-.21.6-.38.85-.18.25-.41.46-.7.65-.27.17-.6.32-1 .42-.41.11-.82.12-1.22.03a2.1 2.1 0 0 1-1.07-.67c-.3-.35-.55-.87-.73-1.53l-.1-.52a2.93 2.93 0 0 1-.07-1.4 2 2 0 0 1 .52-1.02c.28-.29.63-.49 1.07-.6.38-.11.72-.12 1.02-.03.3.07.57.22.78.45.23.23.42.53.59.91l-5.53 1.49.48 1.78Zm14.72-9.91.71 2.65 6.87-1.83-.71-2.66-6.87 1.84Zm2-.08 2.51 9.35 3.08-.83-2.5-9.35-3.08.83Zm6.65 3a5.09 5.09 0 0 0 1.44 2.48 5.06 5.06 0 0 0 2.48 1.25c.96.2 1.97.16 3.04-.13a6.41 6.41 0 0 0 2.67-1.4 5.05 5.05 0 0 0 1.55-5.2 5.03 5.03 0 0 0-3.94-3.75 6.41 6.41 0 0 0-3.02.13 6.56 6.56 0 0 0-2.7 1.4 5.06 5.06 0 0 0-1.52 2.33c-.28.9-.28 1.86 0 2.89Zm3.3-.88a2.69 2.69 0 0 1-.04-1.4c.11-.43.31-.79.6-1.08.29-.29.64-.49 1.07-.6a2.27 2.27 0 0 1 2.26.62c.31.31.54.72.67 1.23.14.51.15.98.04 1.4a2.27 2.27 0 0 1-1.65 1.65 2.31 2.31 0 0 1-2.28-.6 2.68 2.68 0 0 1-.68-1.22Zm11.94-3.43.3 1.15 2.84-.76c.22-.06.42-.09.6-.07a1 1 0 0 1 .7.36c.07.1.13.21.16.34.07.24.03.5-.1.75-.1.25-.4.43-.85.55l-2.82.76.54 2.02 3.9-1.05c1.13-.3 1.86-.77 2.2-1.4.36-.67.44-1.36.24-2.1a2.26 2.26 0 0 0-.86-1.36c-.41-.27-.9-.4-1.48-.4s-1.2.1-1.88.27l-3.49.94Zm.11.42 3.28-.87c.6-.17 1.14-.4 1.59-.7.46-.32.8-.7 1.01-1.14.22-.45.25-.95.1-1.5a2.43 2.43 0 0 0-2.34-1.93 4.9 4.9 0 0 0-1.73.17l-3.27.87.54 2.02 2.61-.7c.33-.09.6-.06.82.08a.9.9 0 0 1 .43.57c.03.11.04.23.02.35a.84.84 0 0 1-.1.35c-.07.11-.16.21-.27.3-.1.07-.24.13-.4.18l-2.62.7.33 1.25Zm-3.21-4.6 2.62 9.77 3.08-.82-2.62-9.78-3.08.83Zm15.13 3.3a1.2 1.2 0 0 1 0-.73c.1-.22.26-.42.49-.58.24-.19.54-.33.91-.43a4.2 4.2 0 0 1 2.77.12l-.4-1.5a4.86 4.86 0 0 0-2.13-.36 6.2 6.2 0 0 0-3.58 1.19c-.57.41-.97.9-1.2 1.47a2.87 2.87 0 0 0-.06 1.81c.17.64.47 1.15.89 1.52.43.36.94.58 1.55.68.6.08 1.24.03 1.92-.15a4.84 4.84 0 0 0 1.73-.83c.49-.39.83-.85 1.02-1.37.2-.54.23-1.12.06-1.74l-.66-1.1c.14.52.15.96.03 1.31a1.7 1.7 0 0 1-.63.85 3.05 3.05 0 0 1-1.76.57c-.24-.03-.44-.1-.6-.2a.91.91 0 0 1-.35-.53Zm-2.29-3.5c.13-.15.34-.33.62-.54a6.2 6.2 0 0 1 2.28-1.16c.54-.14 1-.13 1.36.05.37.16.62.44.73.85l1.67 6.25 3.08-.83-1.84-6.88a2.66 2.66 0 0 0-1.06-1.56 3.63 3.63 0 0 0-1.9-.63c-.75-.08-1.56 0-2.44.24-.88.24-1.67.58-2.39 1.03-.7.44-1.29.88-1.77 1.3l1.66 1.87Zm16.58 7.8-3.87-14.45-3.2.86 3.86 14.45 3.21-.86Zm5.43-11.7a5.75 5.75 0 0 0-1.45-2.69 4.64 4.64 0 0 0-4.6-1.3 3.87 3.87 0 0 0-2.96 3.44c-.11.87-.03 1.83.26 2.9a7.46 7.46 0 0 0 1.22 2.63c.54.69 1.17 1.17 1.9 1.45.73.26 1.53.27 2.38.04a4.62 4.62 0 0 0 3.34-3.42c.24-.9.21-1.92-.09-3.05Zm-3.38.9c.14.51.15.97.03 1.39-.12.4-.33.75-.63 1.03a2.58 2.58 0 0 1-2.25.63 2.4 2.4 0 0 1-1.76-1.81c-.14-.52-.15-1-.01-1.4a2.4 2.4 0 0 1 1.65-1.58c.42-.12.84-.14 1.24-.05.4.1.76.29 1.06.58.31.3.53.7.67 1.21Zm14.48-9.12 2.62 9.78 3.23-.87-2.62-9.77-3.23.86Zm-10.47 2.81 2.62 9.78 3.23-.87-2.62-9.77-3.23.86Zm3.97 4.7 2.46-.66c.37-.1.67-.08.9.05.25.12.4.32.49.6a1 1 0 0 1-.01.58.8.8 0 0 1-.3.42c-.14.11-.32.2-.56.26l-2.47.66.67 2.49 3.03-.81a4.17 4.17 0 0 0 1.72-.9c.47-.43.78-.94.95-1.55.18-.6.17-1.26-.02-1.95-.28-1.05-.83-1.72-1.65-2.02a4.32 4.32 0 0 0-2.73-.07l-3.04.82.56 2.08Z"/>
</svg>
